app/dist/common/images/wallbox.svg

<svg height="18" viewBox="0 0 18 18" width="18" xmlns="http://www.w3.org/2000/svg"><path d="m0 0h18v18h-18z" fill="#f0f3fa"/><path d="m13 8v-1.85c0-2.01-2.06-3.15-4-3.15s-4 1.15-4 3.15v1.85h2v2.45c0 .3.06.55.5.55s.5-.24.5-.55v-2.45h2v2.45c0 .3.06.55.5.55s.5-.24.5-.55v-2.45zm-3.98 3.6c.34.43.99.97 1.8.97.83 0 1.52-.48 1.95-.97h.23c0 1.87-1.77 3.4-4 3.4s-4-1.53-4-3.4h.25c.33.48 1 .97 1.94.97s1.51-.55 1.81-.97h.01z"/></svg>

<!-- by TradingView --><svg xmlns="http://www.w3.org/2000/svg" width="18" height="18" viewBox="0 0 18 18"><path fill="#F0F3FA" d="M0 0h18v18H0z"/><path d="M13 8V6.15C13 4.14 10.94 3 9 3S5 4.15 5 6.15V8h2v2.45c0 .3.06.55.5.55s.5-.24.5-.55V8h2v2.45c0 .3.06.55.5.55s.5-.24.5-.55V8h2zm-3.98 3.6c.34.43.99.97 1.8.97.83 0 1.52-.48 1.95-.97H13c0 1.87-1.77 3.4-4 3.4s-4-1.53-4-3.4h.25c.33.48 1 .97 1.94.97S8.7 12.02 9 11.6h.01z"/></svg>
